icons/op-arrow-down1-24.svg

<svg width="24" height="24" viewBox="0 0 24 24" fill="none" xmlns="http://www.w3.org/2000/svg">
<path d="M11.0625 16.5836L4.375 9.4461C3.875 8.91078 3.875 7.95911 4.375 7.42379C4.90625 6.85874 5.75 6.85874 6.25 7.42379L12 13.5502L17.7188 7.42379C18.25 6.85874 19.0938 6.85874 19.625 7.42379C19.875 7.69145 20 8.04833 20 8.43494C20 8.82156 19.875 9.17844 19.625 9.4461L12.9375 16.5836C12.6875 16.8513 12.3438 17 12 17C11.625 17 11.3125 16.8513 11.0625 16.5836Z" fill="black"/>
</svg>

<svg xmlns="http://www.w3.org/2000/svg" width="24" height="24" viewBox="0 0 24 24"><path d="M11.062 16.584 4.375 9.446c-.5-.535-.5-1.487 0-2.022.531-.565 1.375-.565 1.875 0L12 13.55l5.719-6.126a1.284 1.284 0 0 1 1.906 0c.25.267.375.624.375 1.011 0 .387-.125.743-.375 1.011l-6.687 7.138c-.25.267-.594.416-.938.416-.375 0-.688-.149-.938-.416Z"/></svg>
